X:1
T:Title
%%score { ( 1 3 4 ) | ( 2 5 ) }
L:1/8
M:3/4
K:Db
V:1 treble nm="Grand Piano"
V:3 treble 
V:4 treble 
V:2 bass 
V:5 bass 
V:1
 z2 z2[Q:1/4=90] [Fd]>[DFA] | [DAc]2 [DGB]2 [=DF]>[B,FB] | [B,FA]2 [B,EG]2 [B,=DF][B,EG] | %3
 [Gc]4 z2 |[M:2/4] [FA]4 |[M:1/4] [Fd]>[DFA] |[M:3/4] [DAc]2 [DGB]2 [=DF]>[B,FB] | %7
 [B,FA]2 [B,EG]2 [B,=DF][B,EG] | [Gc]4 z2 |[M:2/4] D4 |[M:1/4] F>F |[M:3/4] E2 [EA]2 A>B | %12
 A2 =G2 GA | B3 =A B_c |[M:2/4] [Ec]4 |[M:1/4] c>c |[M:3/4] e3 e dc |[M:7/8] [FB]2 F3 F[FA] | %18
[M:3/4] c3 E [=DB][=G,_DE] |[M:2/4] [A,CA]4 |[M:1/4] d>A |[M:3/4] [Ac]2 z2 z2 | [FA]2 [EG]2 z2 | %23
 [Gc]4 z2 | [FA]4 z2 | DD [DGB]2 F>B | [FA]-[B,FA] [EG]-[B,EG] FG | [Gc]4 z2 |[M:2/4] D4 |] %29
V:2
 z2 z2 [D,A,]>D, | G,2 G,2 B,,>=D, | E,2 E,2 F,D, | [A,,A,]2 z G [E,A,E][A,,A,] |[M:2/4] [D,A,]4 | %5
[M:1/4] [D,A,]>D, |[M:3/4] G,2 G,2 B,,>=D, | E,2 E,2 F,E, | [A,,A,]2 z G [E,A,E][A,,G,A,] | %9
[M:2/4] [D,F,A,]4 |[M:1/4] [D,A,D]>[D,A,D] |[M:3/4] [E,A,C]2 [C,A,]2 [E,CE]>[E,DE] | %12
 [E,CE]2 [E,B,E]2 [E,B,D][E,A,C] | [E,=G,D]3 [E,_G,C] [E,=G,D][E,G,=D] |[M:2/4] [A,,A,]4 | %15
[M:1/4] [A,E]>[A,E] |[M:3/4] [A,CE]3 [A,CE] [=G,B,E][A,E] |[M:7/8] [D,D]2 [=D,_C]3 [D,C][D,C] | %18
[M:3/4] [E,A,E]3 [C,A,] [B,,F,]E, |[M:2/4] A,,4 |[M:1/4][K:treble] F>F | %21
[M:3/4][K:bass] G,G, G,2 B,,>=D, | z2 z2 .[F,=D]2 | [A,,A,]A,, z G [A,,A,]2 | %24
 [D,A,]D, D,2[K:treble] F>F | G,G, G,2 .B,,>F | z2 z2 .[F,=D]2 | %27
 [A,,A,]A,, C,[C,A,] [E,A,E][A,,G,A,] |[M:2/4] [D,F,A,]4 |] %29
V:3
 x6 | x6 | x6 | z2 z B G[GB] |[M:2/4] x4 |[M:1/4] x2 |[M:3/4] x6 | x6 | z2 z B GC |[M:2/4] x4 | %10
[M:1/4] x2 |[M:3/4] x6 | x6 | x6 |[M:2/4] x4 |[M:1/4] x2 |[M:3/4] x6 |[M:7/8] x7 |[M:3/4] x6 | %19
[M:2/4] x4 |[M:1/4] x2 |[M:3/4] DD [DGB]2 [=DF]>[B,FB] | B,B, B,B, FG | z A, z B [EG][GB] | %24
 z A, A,2 d>A | [Ac]2 z2 =DB, | .B,2 .B,2 z2 | z A, A,[GB] GC |[M:2/4] x4 |] %29
V:4
 x6 | x6 | x6 | z2 A,2 z2 |[M:2/4] x4 |[M:1/4] x2 |[M:3/4] x6 | x6 | z2 A,2 z2 |[M:2/4] x4 | %10
[M:1/4] x2 |[M:3/4] x6 | x6 | x6 |[M:2/4] x4 |[M:1/4] x2 |[M:3/4] x6 |[M:7/8] x7 |[M:3/4] x6 | %19
[M:2/4] x4 |[M:1/4] x2 |[M:3/4] x6 | x6 | z2 A,2 z2 | x6 | x6 | x6 | x6 |[M:2/4] x4 |] %29
V:5
 x6 | x6 | x6 | z2 C,2 z2 |[M:2/4] x4 |[M:1/4] x2 |[M:3/4] x6 | x6 | z2 C,2 z2 |[M:2/4] x4 | %10
[M:1/4] x2 |[M:3/4] x6 | x6 | x6 |[M:2/4] x4 |[M:1/4] x2 |[M:3/4] x6 |[M:7/8] x7 |[M:3/4] x6 | %19
[M:2/4] x4 |[M:1/4][K:treble] x2 |[M:3/4][K:bass] x6 | E,E, E,E, B,-[E,B,E] | z2 C,2 z2 | %24
 x4[K:treble] x2 | z2 z2 z =D, | E,E, E,E, B,-[E,B,E] | x6 |[M:2/4] x4 |] %29

